img/search_icon.svg

<svg height="15" viewBox="0 0 15 15" width="15" xmlns="http://www.w3.org/2000/svg"><g fill="#fff"><path d="m6.05934375 12.0316875c-3.2930625 0-5.97215625-2.67928125-5.97215625-5.97253125 0-3.29296875 2.67909375-5.97215625 5.97215625-5.97215625 3.29296875 0 5.97196875 2.6791875 5.97196875 5.97215625 0 3.29325-2.679 5.97253125-5.97196875 5.97253125zm0-11.1946875c-2.87953125 0-5.22215625 2.34271875-5.22215625 5.22215625 0 2.87971875 2.342625 5.22253125 5.22215625 5.22253125 2.8794375 0 5.22196875-2.3428125 5.22196875-5.22253125 0-2.8794375-2.34253125-5.22215625-5.22196875-5.22215625z"/><path d="m9.155 12.042h6.528v.75h-6.528z" transform="matrix(.70710678 .70710678 -.70710678 .70710678 12.417586 -5.144704)"/></g></svg>

<svg xmlns="http://www.w3.org/2000/svg" width="15" height="15" viewBox="0 0 15 15">
  <g fill="#FFF">
    <path d="M6.05934375,12.0316875 C2.76628125,12.0316875 0.0871875,9.35240625 0.0871875,6.05915625 C0.0871875,2.7661875 2.76628125,0.087 6.05934375,0.087 C9.3523125,0.087 12.0313125,2.7661875 12.0313125,6.05915625 C12.0313125,9.35240625 9.3523125,12.0316875 6.05934375,12.0316875 Z M6.05934375,0.837 C3.1798125,0.837 0.8371875,3.17971875 0.8371875,6.05915625 C0.8371875,8.938875 3.1798125,11.2816875 6.05934375,11.2816875 C8.93878125,11.2816875 11.2813125,8.938875 11.2813125,6.05915625 C11.2813125,3.17971875 8.93878125,0.837 6.05934375,0.837 Z"/>
    <polygon points="9.155 12.042 15.683 12.042 15.683 12.792 9.155 12.792" transform="rotate(45 12.419 12.417)"/>
  </g>
</svg>
